icon_installer/data/icons/scalable/actions/show-mail-secure-symbolic.svg

<?xml version="1.0" encoding="UTF-8"?>
<svg height="16px" viewBox="0 0 16 16" width="16px" xmlns="http://www.w3.org/2000/svg">
    <path d="m 2.1875 2 c -1.207031 0 -2.1875 0.800781 -2.1875 2 v 7.976562 c 0 1.199219 0.980469 2 2.1875 2 h 6.8125 v -1.976562 h -7 v -7.375 l 6.007812 4.507812 l 5.992188 -4.710937 v 3.578125 h 2 v -3.78125 c 0 -1.199219 -0.980469 -2.21875 -2.1875 -2.21875 z m 0.644531 2 h 10.085938 l -4.925781 3.867188 z m 10.167969 5 c -1.109375 0 -2 0.890625 -2 2 v 1 h -1 v 3.976562 h 6 v -3.976562 h -1 v -1 c 0 -1.109375 -0.890625 -2 -2 -2 z m 0 1 c 0.554688 0 1 0.445312 1 1 v 1 h -2 v -1 c 0 -0.554688 0.445312 -1 1 -1 z m 0 0" fill="#222222"/>
</svg>

<svg xmlns="http://www.w3.org/2000/svg" width="16" height="16"><path fill="#222" d="M2.188 2C.98 2 0 2.8 0 4v7.977c0 1.199.98 2 2.188 2H9V12H2V4.625l6.008 4.508L14 4.422V8h2V4.219C16 3.019 15.02 2 13.812 2zm.644 2h10.086L7.992 7.867zM13 9c-1.11 0-2 .89-2 2v1h-1v3.977h6V12h-1v-1c0-1.11-.89-2-2-2zm0 1c.555 0 1 .445 1 1v1h-2v-1c0-.555.445-1 1-1zm0 0"/></svg>
